src/static/logos/pixate.svg

<?xml version="1.0" encoding="UTF-8" standalone="no"?>
<svg width="256px" height="260px" viewBox="0 0 256 260" version="1.1" xmlns="http://www.w3.org/2000/svg" xmlns:xlink="http://www.w3.org/1999/xlink" preserveAspectRatio="xMidYMid">
	<g>
		<path d="M148.576164,67.064132 L134.402186,120.77605 L149.322163,120.77605 C200.050085,120.77605 216.46206,93.9200911 234.366033,51.3981559 L255.254001,1.41623221 C184.384109,-3.80575982 163.496141,10.3682186 148.576164,67.064132" fill="#3EC4FC"></path>
		<path d="M0.8683893,2.16223108 L21.7563574,52.1441548 C39.6603301,94.6660899 56.0723051,121.522049 106.800228,121.522049 L121.720205,121.522049 L107.546227,67.8101309 C92.6262493,10.3682186 71.7382812,-3.80575982 0.8683893,2.16223108" fill="#FFBD00"></path>
		<path d="M107.546227,193.13794 L121.720205,139.426022 L106.800228,139.426022 C56.0723051,139.426022 39.6603301,166.281981 21.7563574,208.803916 L0.8683893,258.785839 C71.7382812,264.007832 92.6262493,249.833853 107.546227,193.13794" fill="#F18B37"></path>
		<path d="M255.254001,258.039841 L234.366033,208.057917 C216.46206,165.535982 200.050085,138.680023 149.322163,138.680023 L134.402186,138.680023 L148.576164,192.391941 C163.496141,249.833853 184.384109,264.007832 255.254001,258.039841" fill="#0090DB"></path>
	</g>
</svg>

<svg width="256" height="260" xmlns="http://www.w3.org/2000/svg" preserveAspectRatio="xMidYMid"><path d="M148.576 67.064l-14.174 53.712h14.92c50.728 0 67.14-26.856 85.044-69.378l20.888-49.982c-70.87-5.222-91.758 8.952-106.678 65.648" fill="#3EC4FC"/><path d="M.868 2.162l20.888 49.982c17.904 42.522 34.316 69.378 85.044 69.378h14.92L107.546 67.81C92.626 10.368 71.738-3.806.868 2.162" fill="#FFBD00"/><path d="M107.546 193.138l14.174-53.712H106.8c-50.728 0-67.14 26.856-85.044 69.378L.868 258.786c70.87 5.222 91.758-8.952 106.678-65.648" fill="#F18B37"/><path d="M255.254 258.04l-20.888-49.982c-17.904-42.522-34.316-69.378-85.044-69.378h-14.92l14.174 53.712c14.92 57.442 35.808 71.616 106.678 65.648" fill="#0090DB"/></svg>
